raw-svg/lightbulb.svg

<svg fill="none" height="24" viewBox="0 0 24 24" width="24" xmlns="http://www.w3.org/2000/svg"><path clip-rule="evenodd" d="m12 4c-2.89949 0-5.25 2.35051-5.25 5.25 0 1.7619.86721 3.3213 2.2014 4.2747.45453.3249.7986.8625.7986 1.4994v1.7259c0 .1381.11193.25.25.25h4c.1381 0 .25-.1119.25-.25v-1.7259c0-.6369.3441-1.1745.7986-1.4994 1.3342-.9534 2.2014-2.5128 2.2014-4.2747 0-2.89949-2.3505-5.25-5.25-5.25zm-6.75 5.25c0-3.72792 3.02208-6.75 6.75-6.75 3.7279 0 6.75 3.02208 6.75 6.75 0 2.2667-1.118 4.2722-2.8293 5.4952-.1263.0902-.1707.2019-.1707.2789v1.7259c0 .9665-.7835 1.75-1.75 1.75h-4c-.9665 0-1.75-.7835-1.75-1.75v-1.7259c0-.077-.04439-.1887-.17073-.2789-1.71129-1.223-2.82927-3.2285-2.82927-5.4952zm3 11.5c0-.4142.33579-.75.75-.75h6c.4142 0 .75.3358.75.75s-.3358.75-.75.75h-6c-.41421 0-.75-.3358-.75-.75z" fill="#000" fill-rule="evenodd"/></svg>

<svg width="24" height="24" viewBox="0 0 24 24" fill="none" xmlns="http://www.w3.org/2000/svg">
<path fill-rule="evenodd" clip-rule="evenodd" d="M12 4C9.10051 4 6.75 6.35051 6.75 9.25C6.75 11.0119 7.61721 12.5713 8.9514 13.5247C9.40593 13.8496 9.75 14.3872 9.75 15.0241V16.75C9.75 16.8881 9.86193 17 10 17H14C14.1381 17 14.25 16.8881 14.25 16.75V15.0241C14.25 14.3872 14.5941 13.8496 15.0486 13.5247C16.3828 12.5713 17.25 11.0119 17.25 9.25C17.25 6.35051 14.8995 4 12 4ZM5.25 9.25C5.25 5.52208 8.27208 2.5 12 2.5C15.7279 2.5 18.75 5.52208 18.75 9.25C18.75 11.5167 17.632 13.5222 15.9207 14.7452C15.7944 14.8354 15.75 14.9471 15.75 15.0241V16.75C15.75 17.7165 14.9665 18.5 14 18.5H10C9.0335 18.5 8.25 17.7165 8.25 16.75V15.0241C8.25 14.9471 8.20561 14.8354 8.07927 14.7452C6.36798 13.5222 5.25 11.5167 5.25 9.25ZM8.25 20.75C8.25 20.3358 8.58579 20 9 20H15C15.4142 20 15.75 20.3358 15.75 20.75C15.75 21.1642 15.4142 21.5 15 21.5H9C8.58579 21.5 8.25 21.1642 8.25 20.75Z" fill="black"/>
</svg>
